symbols/web/supervisor_account/materialsymbolsrounded/supervisor_account_wght200_20px.svg

<svg xmlns="http://www.w3.org/2000/svg" height="20" width="20"><path d="M14.062 11.333q-.645 0-1.135-.479-.489-.479-.489-1.146 0-.666.479-1.146.479-.479 1.145-.479.667 0 1.146.479.48.48.48 1.146 0 .646-.48 1.136-.479.489-1.146.489Zm-3.02 4.188q-.271 0-.5-.229-.23-.23-.23-.48v-.083q0-.375.198-.687.198-.313.552-.438.709-.271 1.459-.416.75-.146 1.541-.146.771 0 1.521.146.75.145 1.5.416.355.125.542.448.187.323.187.677v.063q0 .27-.218.5-.219.229-.49.229ZM8.083 9.458Q7 9.458 6.292 8.75q-.709-.708-.709-1.792 0-1.062.709-1.781.708-.719 1.791-.719 1.063 0 1.782.719.718.719.718 1.781 0 1.084-.718 1.792-.719.708-1.782.708Zm-5.187 6.063q-.292 0-.5-.219-.208-.219-.208-.51v-.584q0-.687.281-1.166.281-.48.719-.646 1.27-.563 2.447-.802 1.177-.24 2.448-.24h1.396v.667q-.062.083-.083.135-.021.052-.042.156-.333-.02-.646-.031-.312-.01-.625-.01-1.145 0-2.198.229-1.052.229-2.156.75-.229.125-.427.333-.198.209-.198.5v.521h5.021v.917Zm5.229-.917Zm-.042-6.062q.688 0 1.136-.448.448-.448.448-1.136 0-.687-.448-1.135-.448-.448-1.136-.448-.687 0-1.135.448-.448.448-.448 1.135 0 .688.448 1.136.448.448 1.135.448Zm0-1.584Z"/></svg>

<svg xmlns="http://www.w3.org/2000/svg" height="20" width="20"><path d="M14.062 11.333Q13.417 11.333 12.927 10.854Q12.438 10.375 12.438 9.708Q12.438 9.042 12.917 8.562Q13.396 8.083 14.062 8.083Q14.729 8.083 15.208 8.562Q15.688 9.042 15.688 9.708Q15.688 10.354 15.208 10.844Q14.729 11.333 14.062 11.333ZM11.042 15.521Q10.771 15.521 10.542 15.292Q10.312 15.062 10.312 14.812V14.729Q10.312 14.354 10.51 14.042Q10.708 13.729 11.062 13.604Q11.771 13.333 12.521 13.188Q13.271 13.042 14.062 13.042Q14.833 13.042 15.583 13.188Q16.333 13.333 17.083 13.604Q17.438 13.729 17.625 14.052Q17.812 14.375 17.812 14.729V14.792Q17.812 15.062 17.594 15.292Q17.375 15.521 17.104 15.521ZM8.083 9.458Q7 9.458 6.292 8.75Q5.583 8.042 5.583 6.958Q5.583 5.896 6.292 5.177Q7 4.458 8.083 4.458Q9.146 4.458 9.865 5.177Q10.583 5.896 10.583 6.958Q10.583 8.042 9.865 8.75Q9.146 9.458 8.083 9.458ZM2.896 15.521Q2.604 15.521 2.396 15.302Q2.188 15.083 2.188 14.792V14.208Q2.188 13.521 2.469 13.042Q2.75 12.562 3.188 12.396Q4.458 11.833 5.635 11.594Q6.812 11.354 8.083 11.354Q8.604 11.354 8.979 11.354Q9.354 11.354 9.479 11.354V12.021Q9.417 12.104 9.396 12.156Q9.375 12.208 9.354 12.312Q9.021 12.292 8.708 12.281Q8.396 12.271 8.083 12.271Q6.938 12.271 5.885 12.5Q4.833 12.729 3.729 13.25Q3.5 13.375 3.302 13.583Q3.104 13.792 3.104 14.083V14.604H8.125V15.521ZM8.125 14.604Q8.125 14.604 8.125 14.604Q8.125 14.604 8.125 14.604Q8.125 14.604 8.125 14.604Q8.125 14.604 8.125 14.604Q8.125 14.604 8.125 14.604Q8.125 14.604 8.125 14.604Q8.125 14.604 8.125 14.604Q8.125 14.604 8.125 14.604ZM8.083 8.542Q8.771 8.542 9.219 8.094Q9.667 7.646 9.667 6.958Q9.667 6.271 9.219 5.823Q8.771 5.375 8.083 5.375Q7.396 5.375 6.948 5.823Q6.5 6.271 6.5 6.958Q6.5 7.646 6.948 8.094Q7.396 8.542 8.083 8.542ZM8.083 6.958Q8.083 6.958 8.083 6.958Q8.083 6.958 8.083 6.958Q8.083 6.958 8.083 6.958Q8.083 6.958 8.083 6.958Q8.083 6.958 8.083 6.958Q8.083 6.958 8.083 6.958Q8.083 6.958 8.083 6.958Q8.083 6.958 8.083 6.958Z"/></svg>
